FINK
CUT[IM WALD UND AUF DER HAIDE]
REG[Europa, Mitteleuropa, Deutschland]
KEY[F0658  16  C 6/8]
MEL[-5_  -5__-5_-5__-5_  -5__3_1_0_
    1_  -6__-6_-6__-6_  -6__4_2_0_
    1_  -7__-7_-7_1_2_  3__.4_3_
    2_  1__1_-7_-6_-7_  1__0__.
    12  3__333__33  5___4_
    3_  2__2_2_1_2_  3__0__.
    12  3__333__33  5___4_
    3_  2__2_2_1_2_  1__0__. //] >>
FCT[Staende -, Jaeger - Lied]
